icons/themes/default/arrow-left.svg

<svg width="16" height="16" viewBox="0 0 16 16" fill="none" xmlns="http://www.w3.org/2000/svg">
<path d="M2.4126 8.35644L2.05908 8.00293L7.1167 2.94531L7.82373 3.65234L3.97412 7.50195L14.0552 7.50195L14.0552 8.50195L3.97412 8.50195L7.82373 12.3525L7.1167 13.0596L2.4126 8.35644Z" fill="currentColor"/>
</svg>

<svg xmlns="http://www.w3.org/2000/svg" fill="none" viewBox="0 0 16 16">
  <path fill="currentColor" d="m2.413 8.356-.354-.353 5.058-5.058.707.707-3.85 3.85h10.081v1H3.975l3.849 3.85-.707.708-4.704-4.704Z"/>
</svg>
